X:126
T:Reel 126
M:4/4
K:Emin
L:1/8
BA|GEFD B,EEF|GFAB BABA|GEFD B,EDE|FEFG AGFA|GEFD B,EEF|GEFD ADB,A|GFGA B2cd|e^cdB A2|BA|GFGA Beef|gefd BddB|GFGA B2ef|gefd Beef|gefd ecdB|AFDE FGAF|GFGA Beed|B^cdB A2|
